icons/modern/bust-in-silhouette.svg

<svg width="32" height="32" viewBox="0 0 32 32" fill="none" xmlns="http://www.w3.org/2000/svg">
<path d="M2.72974 29.7433C2.71201 29.8067 2.75981 29.8694 2.82561 29.8694H29.1741C29.2399 29.8694 29.2877 29.8067 29.2699 29.7434C27.6511 23.9674 22.0007 19.7444 15.9139 19.7444C9.82711 19.7444 4.34611 23.9674 2.72974 29.7433Z" fill="url(#paint0_radial_5559_20858)"/>
<path d="M2.72974 29.7433C2.71201 29.8067 2.75981 29.8694 2.82561 29.8694H29.1741C29.2399 29.8694 29.2877 29.8067 29.2699 29.7434C27.6511 23.9674 22.0007 19.7444 15.9139 19.7444C9.82711 19.7444 4.34611 23.9674 2.72974 29.7433Z" fill="url(#paint1_linear_5559_20858)"/>
<circle cx="9.89838" cy="11.8381" r="2.1875" fill="url(#paint2_radial_5559_20858)"/>
<circle cx="22.1015" cy="11.8381" r="2.1875" fill="url(#paint3_radial_5559_20858)"/>
<g filter="url(#filter0_f_5559_20858)">
<circle cx="22.1015" cy="11.8381" r="1.5625" fill="url(#paint4_radial_5559_20858)"/>
</g>
<g filter="url(#filter1_f_5559_20858)">
<circle cx="10.0781" cy="11.8381" r="1.5625" fill="#140F1A"/>
</g>
<path d="M9.61689 15.4752L9.2491 7.45955C9.06157 4.57652 10.9988 2.00999 14.827 2.135H17.2492C21.3117 2.135 22.9289 4.69411 22.7492 7.5725L22.3857 15.4622C22.2211 18.0975 19.9679 20.0725 17.2179 20.1506H14.8898C12.0617 20.1506 9.78796 18.105 9.61689 15.4752Z" fill="url(#paint5_radial_5559_20858)"/>
<path d="M9.61689 15.4752L9.2491 7.45955C9.06157 4.57652 10.9988 2.00999 14.827 2.135H17.2492C21.3117 2.135 22.9289 4.69411 22.7492 7.5725L22.3857 15.4622C22.2211 18.0975 19.9679 20.0725 17.2179 20.1506H14.8898C12.0617 20.1506 9.78796 18.105 9.61689 15.4752Z" fill="url(#paint6_radial_5559_20858)"/>
<defs>
<filter id="filter0_f_5559_20858" x="20.289" y="10.0256" width="3.625" height="3.625" filterUnits="userSpaceOnUse" color-interpolation-filters="sRGB">
<feFlood flood-opacity="0" result="BackgroundImageFix"/>
<feBlend mode="normal" in="SourceGraphic" in2="BackgroundImageFix" result="shape"/>
<feGaussianBlur stdDeviation="0.125" result="effect1_foregroundBlur_5559_20858"/>
</filter>
<filter id="filter1_f_5559_20858" x="8.26556" y="10.0256" width="3.625" height="3.625" filterUnits="userSpaceOnUse" color-interpolation-filters="sRGB">
<feFlood flood-opacity="0" result="BackgroundImageFix"/>
<feBlend mode="normal" in="SourceGraphic" in2="BackgroundImageFix" result="shape"/>
<feGaussianBlur stdDeviation="0.125" result="effect1_foregroundBlur_5559_20858"/>
</filter>
<radialGradient id="paint0_radial_5559_20858" cx="0" cy="0" r="1" gradientUnits="userSpaceOnUse" gradientTransform="translate(25.2108 29.8694) rotate(-90) scale(11.0312 20.5533)">
<stop stop-color="#403B43"/>
<stop offset="0.509915" stop-color="#100517"/>
</radialGradient>
<linearGradient id="paint1_linear_5559_20858" x1="19.3358" y1="29.8694" x2="19.3358" y2="29.4475" gradientUnits="userSpaceOnUse">
<stop offset="0.16" stop-color="#150E1B"/>
<stop offset="1" stop-color="#150E1B" stop-opacity="0"/>
</linearGradient>
<radialGradient id="paint2_radial_5559_20858" cx="0" cy="0" r="1" gradientUnits="userSpaceOnUse" gradientTransform="translate(9.89838 11.8381) rotate(90) scale(2.1875)">
<stop offset="0.521429" stop-color="#1A1420"/>
<stop offset="1" stop-color="#120E17"/>
</radialGradient>
<radialGradient id="paint3_radial_5559_20858" cx="0" cy="0" r="1" gradientUnits="userSpaceOnUse" gradientTransform="translate(23.5546 10.3381) rotate(111.508) scale(3.96349)">
<stop offset="0.262056" stop-color="#413949"/>
<stop offset="1" stop-color="#190E22"/>
</radialGradient>
<radialGradient id="paint4_radial_5559_20858" cx="0" cy="0" r="1" gradientUnits="userSpaceOnUse" gradientTransform="translate(22.1015 11.8381) rotate(90) scale(1.5625)">
<stop stop-color="#332C3A"/>
<stop offset="1" stop-color="#150921"/>
</radialGradient>
<radialGradient id="paint5_radial_5559_20858" cx="0" cy="0" r="1" gradientUnits="userSpaceOnUse" gradientTransform="translate(20.9606 3.83812) rotate(108.829) scale(17.2348 13.7044)">
<stop offset="0.0971492" stop-color="#3C2B4F"/>
<stop offset="1" stop-color="#0B0410"/>
</radialGradient>
<radialGradient id="paint6_radial_5559_20858" cx="0" cy="0" r="1" gradientUnits="userSpaceOnUse" gradientTransform="translate(19.3044 5.33812) rotate(90) scale(1.59375 3.70934)">
<stop stop-color="#493E56"/>
<stop offset="1" stop-color="#493E56" stop-opacity="0"/>
</radialGradient>
</defs>
</svg>

<svg width="32" height="32" fill="none" xmlns="http://www.w3.org/2000/svg"><path d="M2.73 29.743a.1.1 0 0 0 .096.126h26.348a.1.1 0 0 0 .096-.126c-1.619-5.776-7.27-9.999-13.356-9.999-6.087 0-11.568 4.223-13.184 10Z" fill="url(#a)"/><path d="M2.73 29.743a.1.1 0 0 0 .096.126h26.348a.1.1 0 0 0 .096-.126c-1.619-5.776-7.27-9.999-13.356-9.999-6.087 0-11.568 4.223-13.184 10Z" fill="url(#b)"/><circle cx="9.898" cy="11.838" r="2.188" fill="url(#c)"/><circle cx="22.102" cy="11.838" r="2.188" fill="url(#d)"/><g filter="url(#e)"><circle cx="22.102" cy="11.838" r="1.563" fill="url(#f)"/></g><g filter="url(#g)"><circle cx="10.078" cy="11.838" r="1.563" fill="#140F1A"/></g><path d="M9.617 15.475 9.249 7.46C9.062 4.577 11 2.01 14.827 2.135h2.422c4.063 0 5.68 2.56 5.5 5.438l-.363 7.89c-.165 2.635-2.418 4.61-5.168 4.688H14.89c-2.828 0-5.102-2.046-5.273-4.676Z" fill="url(#h)"/><path d="M9.617 15.475 9.249 7.46C9.062 4.577 11 2.01 14.827 2.135h2.422c4.063 0 5.68 2.56 5.5 5.438l-.363 7.89c-.165 2.635-2.418 4.61-5.168 4.688H14.89c-2.828 0-5.102-2.046-5.273-4.676Z" fill="url(#i)"/><defs><radialGradient id="a" cx="0" cy="0" r="1" gradientUnits="userSpaceOnUse" gradientTransform="matrix(0 -11.0312 20.5533 0 25.21 29.87)"><stop stop-color="#403B43"/><stop offset=".51" stop-color="#100517"/></radialGradient><radialGradient id="c" cx="0" cy="0" r="1" gradientUnits="userSpaceOnUse" gradientTransform="rotate(90 -.97 10.868) scale(2.1875)"><stop offset=".521" stop-color="#1A1420"/><stop offset="1" stop-color="#120E17"/></radialGradient><radialGradient id="d" cx="0" cy="0" r="1" gradientUnits="userSpaceOnUse" gradientTransform="rotate(111.508 8.258 13.187) scale(3.96349)"><stop offset=".262" stop-color="#413949"/><stop offset="1" stop-color="#190E22"/></radialGradient><radialGradient id="f" cx="0" cy="0" r="1" gradientUnits="userSpaceOnUse" gradientTransform="rotate(90 5.132 16.97) scale(1.5625)"><stop stop-color="#332C3A"/><stop offset="1" stop-color="#150921"/></radialGradient><radialGradient id="h" cx="0" cy="0" r="1" gradientUnits="userSpaceOnUse" gradientTransform="rotate(108.829 9.107 9.418) scale(17.2348 13.7044)"><stop offset=".097" stop-color="#3C2B4F"/><stop offset="1" stop-color="#0B0410"/></radialGradient><radialGradient id="i" cx="0" cy="0" r="1" gradientUnits="userSpaceOnUse" gradientTransform="matrix(0 1.59375 -3.70934 0 19.304 5.338)"><stop stop-color="#493E56"/><stop offset="1" stop-color="#493E56" stop-opacity="0"/></radialGradient><filter id="e" x="20.289" y="10.026" width="3.625" height="3.625" filterUnits="userSpaceOnUse" color-interpolation-filters="sRGB"><feFlood flood-opacity="0" result="BackgroundImageFix"/><feBlend in="SourceGraphic" in2="BackgroundImageFix" result="shape"/><feGaussianBlur stdDeviation=".125" result="effect1_foregroundBlur_5559_20858"/></filter><filter id="g" x="8.266" y="10.026" width="3.625" height="3.625" filterUnits="userSpaceOnUse" color-interpolation-filters="sRGB"><feFlood flood-opacity="0" result="BackgroundImageFix"/><feBlend in="SourceGraphic" in2="BackgroundImageFix" result="shape"/><feGaussianBlur stdDeviation=".125" result="effect1_foregroundBlur_5559_20858"/></filter><linearGradient id="b" x1="19.336" y1="29.869" x2="19.336" y2="29.448" gradientUnits="userSpaceOnUse"><stop offset=".16" stop-color="#150E1B"/><stop offset="1" stop-color="#150E1B" stop-opacity="0"/></linearGradient></defs></svg>
